X: 4
T: Weavers' March, The
Z: Mix O'Lydian
S: https://thesession.org/tunes/6330#setting26173
R: reel
M: 4/4
L: 1/8
K: Dmaj
|: A2 AG FG A2 | B2 B2 A4 | Bc d2 cd e2 | g2 f2 e3 z |
A2 AG FG A2 | B2 B2 A4 | Bc d2 cd e2 | e4 d3 z :|
f2 gf e2 fe | d2 ed cB A2 | Bc d2 cd e2 | g2 f2 e3 z |
A2 AG FG A2 | B2 B2 A4 | Bc d2 cd e2 | e4 d3 z :|
